svgs/duotone/hand-sparkles.svg

<svg xmlns="http://www.w3.org/2000/svg" viewBox="0 0 640 512"><!--! Font Awesome Pro 6.3.0 by @fontawesome - https://fontawesome.com License - https://fontawesome.com/license (Commercial License) Copyright 2023 Fonticons, Inc. --><defs><style>.fa-secondary{opacity:.4}</style></defs><path class="fa-primary" d="M156.3 138L106.7 117.4L85.96 67.7C84.94 65.65 82.28 64 80 64C77.72 64 75.05 65.65 74.04 67.7L53.34 117.3L3.695 138C1.668 139.1 .0117 141.7 .0078 143.1c.0039 2.262 1.662 4.953 3.688 5.967l49.57 20.67l20.77 49.67C75.05 222.3 77.72 224 80 224c2.277 0 4.943-1.656 5.959-3.699l20.7-49.63l49.65-20.71c2.027-1.014 3.682-3.696 3.686-5.958C159.1 141.7 158.3 139.1 156.3 138zM639.1 432c-.0039-2.275-1.657-4.952-3.687-5.968l-49.57-20.67l-20.77-49.67C564.9 353.7 562.3 352 560 352c-2.281 0-4.959 1.652-5.975 3.695l-20.7 49.63l-49.64 20.71c-2.027 1.016-3.682 3.683-3.686 5.958c.0039 2.262 1.661 4.954 3.686 5.968l49.57 20.67l20.77 49.67C555.1 510.3 557.7 512 560 512c2.277 0 4.933-1.656 5.949-3.699l20.7-49.63l49.65-20.71C638.3 436.9 639.1 434.3 639.1 432z"/><path class="fa-secondary" d="M512 96c-17.67 0-32 14.33-32 32l-.0156 112c0 8.836-7.148 16-15.98 16s-16.07-7.164-16.07-16L448 64c0-17.67-14.33-32-32-32s-32 14.33-32 32l-.0635 176c0 8.836-7.106 16-15.94 16S351.9 248.8 351.9 240L352 32c0-17.67-14.33-32-32-32S288 14.33 288 32L287.9 240C287.9 248.8 280.8 256 272 256S255.9 248.8 255.9 240L256 64c0-17.67-14.33-32-32-32S192 46.33 192 64v279.4L132.3 283.7C124.5 275.9 114.2 272 104 272C82.68 272 64 289.2 64 312c0 10.23 3.906 20.47 11.72 28.28l113.1 113.1C226.6 491.2 276.9 512 330.3 512H368c42.72 0 81.91-15.32 112.4-40.73l-9.049-3.773c-14.81-7.359-23.36-21.25-23.36-35.5s8.547-28.14 21.28-34.55l39.56-16.56l15.64-37.52c4.461-9.037 11.45-15.37 19.43-19.23L544 128C544 110.3 529.7 96 512 96zM349.8 371.6L320 383.1l-12.42 29.78C306.1 415 305.4 416 304 416s-2.969-.9941-3.578-2.219L288 383.1l-29.79-12.42C256.1 370.1 256 369.4 256 367.1c0-1.365 .9922-2.967 2.209-3.577L288 352l12.42-29.79C301 320.1 302.6 320 304 320s2.967 .9902 3.578 2.217L320 352l29.79 12.42C351 365 352 366.6 352 367.1C352 369.4 351 370.1 349.8 371.6z"/></svg>

<svg xmlns="http://www.w3.org/2000/svg" viewBox="0 0 640 512"><!-- Font Awesome Pro 6.0.0-alpha2 by @fontawesome - https://fontawesome.com License - https://fontawesome.com/license (Commercial License) --><defs><style>.fa-secondary{opacity:.4}</style></defs><path d="M512 96C494.328 96 480 110.328 480 128V240C480 248.836 472.836 256 464 256S448 248.836 448 240V64C448 46.328 433.672 32 416 32S384 46.328 384 64V240C384 248.836 376.836 256 368 256S352 248.836 352 240V32C352 14.328 337.672 0 320 0S288 14.328 288 32V240C288 248.836 280.836 256 272 256S256 248.836 256 240V64C256 46.328 241.672 32 224 32S192 46.328 192 64V343.438L132.281 283.719C124.469 275.906 114.234 272 104 272C82.684 272 64 289.163 64 312C64 322.234 67.906 332.469 75.719 340.281L188.859 453.422C226.625 491.203 276.859 512 330.281 512H368C410.719 512 449.908 496.678 480.424 471.273L471.375 467.5C456.562 460.141 448.016 446.25 448.016 432S456.562 403.859 469.297 397.453L508.859 380.891L524.5 343.375C528.961 334.338 536.02 327.971 544 324.109V128C544 110.328 529.672 96 512 96ZM349.789 371.578L320 383.998L307.578 413.781C306.967 415.006 305.367 416 304 416S301.031 415.006 300.422 413.781L288 383.998L258.209 371.578C256.992 370.969 256 369.357 256 367.998C256 366.633 256.992 365.031 258.209 364.422L288 352.002L300.422 322.217C301.031 320.99 302.633 320 304 320S306.967 320.99 307.578 322.217L320 352.002L349.789 364.422C351.008 365.031 352 366.633 352 367.998C352 369.357 351.008 370.969 349.789 371.578Z" class="fa-secondary"/><path d="M156.303 138.037L144 132.906L106.73 117.365L106.656 117.328L85.959 67.695C84.943 65.652 82.277 64 80 64C77.719 64 75.051 65.652 74.035 67.695L53.338 117.33L53.289 117.355L3.695 138.037C1.668 139.053 0.02 141.717 0.016 143.992L0 144L0.018 144.008C0.021 146.27 1.67 148.949 3.695 149.963L53.266 170.633L53.34 170.67L74.035 220.301C75.051 222.344 77.719 224 80 224C82.277 224 84.943 222.344 85.959 220.301L106.654 170.674L106.656 170.672L106.754 170.623L156.303 149.963C158.33 148.949 159.979 146.27 159.982 144.008L160 144L159.984 143.992C159.98 141.717 158.332 139.053 156.303 138.037ZM639.984 431.992C639.98 429.717 638.332 427.053 636.303 426.037L586.73 405.365L586.656 405.328L565.959 355.695C564.943 353.652 562.277 352 560 352C557.719 352 555.051 353.652 554.035 355.695L533.338 405.33L533.289 405.355L483.695 426.037C481.668 427.053 480.02 429.717 480.016 431.992L480 432L480.018 432.008C480.021 434.27 481.67 436.949 483.695 437.963L533.266 458.633L533.34 458.67L554.035 508.301C555.051 510.344 557.719 512 560 512C562.277 512 564.943 510.344 565.959 508.301L586.654 458.674L586.656 458.672L586.754 458.623L636.303 437.963C638.33 436.949 639.979 434.27 639.982 432.008L640 432L639.984 431.992Z" class="fa-primary"/></svg>
